src/lib/packages/icons/src/assets/line/bed.svg

<svg xmlns="http://www.w3.org/2000/svg" width="24" height="24" fill="none"><path fill="currentColor" d="M18 7.25h-6a.75.75 0 0 0-.75.75v6.25h-7.5V6a.75.75 0 0 0-1.5 0v12a.75.75 0 0 0 1.5 0v-2.25h16.5V18a.75.75 0 0 0 1.5 0v-7c0-2.418-1.332-3.75-3.75-3.75Zm-5.25 7v-5.5H18c1.577 0 2.25.673 2.25 2.25v3.25h-7.5Zm-5.25-1.5A2.753 2.753 0 0 0 10.25 10 2.753 2.753 0 0 0 7.5 7.25 2.753 2.753 0 0 0 4.75 10a2.753 2.753 0 0 0 2.75 2.75Zm0-4c.689 0 1.25.561 1.25 1.25s-.561 1.25-1.25 1.25-1.25-.561-1.25-1.25.561-1.25 1.25-1.25Z"/></svg>

<svg width="24" height="24" viewBox="0 0 24 24" fill="none" xmlns="http://www.w3.org/2000/svg">
<path d="M18 7.25H12C11.586 7.25 11.25 7.586 11.25 8V14.25H3.75V6C3.75 5.586 3.414 5.25 3 5.25C2.586 5.25 2.25 5.586 2.25 6V18C2.25 18.414 2.586 18.75 3 18.75C3.414 18.75 3.75 18.414 3.75 18V15.75H20.25V18C20.25 18.414 20.586 18.75 21 18.75C21.414 18.75 21.75 18.414 21.75 18V11C21.75 8.582 20.418 7.25 18 7.25ZM12.75 14.25V8.75H18C19.577 8.75 20.25 9.423 20.25 11V14.25H12.75ZM7.5 12.75C9.017 12.75 10.25 11.516 10.25 10C10.25 8.484 9.017 7.25 7.5 7.25C5.983 7.25 4.75 8.484 4.75 10C4.75 11.516 5.983 12.75 7.5 12.75ZM7.5 8.75C8.189 8.75 8.75 9.311 8.75 10C8.75 10.689 8.189 11.25 7.5 11.25C6.811 11.25 6.25 10.689 6.25 10C6.25 9.311 6.811 8.75 7.5 8.75Z" fill="currentColor"/>
</svg>
